X: 198
T:Melange
% Nottingham Music Database
S:Trad, arr Phil Rowe
M:6/8
K:A
B|"A"c3 "D"A2F|"A"EAc e2f|"A"e2c "F#7"f2c|"Bm"def B2c|"E"d3 b2a|
"E"g2f e2B|"A"c3 -"Ad"cd^d|"E"efe "E7"e^d=d|"A"c3 "D"A2F|"A"EAc e2f|
"A"e2c "F#7"f2c|"Bm"def B2c|"E"d3 b2a|g2f e3-|"E7"efe dcB|"A"A3
|:"E7"e3 |"A"cde "Ad"^def|"A"e2c A3|"F#m"a3 agf|"Bm"d3 -d2c|
"E"Bcd "Ed"cde|"E"d2b b2a| [1"E"g2g "Ea"gfe|"A"[A3c3]:| [2"E7"gbg ebg|"A"a3 -a2||


